!!!OTL: ELEND HAT MICH UMFANGEN
!!!ARE: Europa, Mitteleuropa, Deutschland
!!!SCT: E0463
!!!YEM: Copyright 1995, estate of Helmut Schaffrath.
**kern
*ICvox
*Ivox
*M6/4
*k[]
*a:
{4a
=1
2a
4a
2a
4b
=2
2ccn
8.b
16a
2gn}
{4a
=3
2ccn
8.b
16a
2a
4g#
=4
[2.a
2a]}
{4a
=5
2a
4a
2a
4b
=6
2ccn
8.b
16a
2gn}
{4a
=7
2ccn
8.b
16a
2a
4g#
=8
[2.a
2a]}
{4ccn
=9
2b
4a
2gn
4fn
=10
2e
4e
2e}
{4ccn
=11
2b
4a
2gn
4fn
=12
2e
4e
2e}
{4e
=13
2a
4a
2a
4b
=14
2ccn
8.b
16a
2gn}
{4a
=15
2ccn
8.b
16a
2a
4g#
=16
[2.a
2a]}
==
!!!AGN: Liebes - Lied, Klage
!!!ONB: ESAC (Essen Associative Code) Database: ERK1
!!!AMT: compound duple
!!!AIN: vox
!!!EED: Helmut Schaffrath
!!!EEV: 1.0
*-
